X: 226
T: No_81_Bird_Dance_Song_(d).krn
N: Derived from No_81_Bird_Dance_Song_(d).krn
%%abc-version 2.0
%%abcx-abcm2ps-target-version 5.9.1 (29 Sep 2008)
%%abc-creator hum2abc beta
%%abcx-conversion-date 2019/03/15 08:38:45
%%humdrum-veritas 3073834263
%%humdrum-veritas-data 3762750065
%%linebreak <none>
%%barnumbers 0
L: 1/8
M: 2/4
K: G clef=bass
[K:clef=bass][M:2/4]B,3/B,/ B,3/C/ ||  
[M:3/4]B,3/B,/B,2B,A, | 
G,4-G,3/B,,/ ||  
[M:2/4]B,,2B,, z ||  
[M:3/4]!fermata!E,3/E,/ E,3/E,/ E,3/B,/ ||  
[M:2/4](B,A,) (A,G,) | 
E,4 | 
B,,2B,, z | 
A,3/A,/ F,3/F,/ ||  
[M:3/4]F,3/F,/F,2F,2 ||  
[M:2/4]E,2B,,/B,,/ z | 
z2F,2 ||  
[M:3/4]E,2B,,/B,,/ zz2 ||  
[M:2/4]E,/E,/B,, E,E, | 
E,2z2 ||  
[M:3/4]E,/E,/B,, E,E,E,2 ||  
[M:2/4]B,F, E,F, | 
E,E,E,2 | 
F,E,E,2 | 
B,F, E,F, | 
E,/E,3/ E, z ||  
[M:3/4]E,/E,3/E,2!fermata!B,,2 ||  
[M:2/4]E,/E,E,/ E, z | 
E,/E,3/E,2 | 
(3B,B,B, B,B, | 
B,B, A,G, | 
E,4 | 
B,,2B,, z ||  
[M:3/4]E,2E,/E,3/ E,/E,3/ ||  
[M:2/4](B,A,) (A,F,) | 
E,4 ||  
[M:3/4]B,,2B,,2B,,3/A,/ ||  
[M:2/4]A,/F,3/ F,/F,3/ ||  
[M:3/4]F,/F,3/F,2F,2 ||  
[M:2/4]E,2B,,/B,,/ z | 
z2F,2 ||  
[M:3/4]E,2B,,/B,,/ zz2 ||  
[M:2/4]E,/E,/B,, E,E, | 
E,2z2 ||  
[M:3/4]E,/E,/B,, E,E,E,2 ||  
[M:2/4]B,F, E,F, | 
E,E,E,2 | 
B,F, E,F, | 
E,/E,3/ E, z ||  
[M:3/4]E,/E,3/E,2!fermata!B,,2 ||  
[M:2/4]E,/E,E,/ E, z | 
E,/E,3/E,2 |]  



